icons/svg/github.svg

<svg width="24" height="24" viewBox="0 0 24 24" fill="none" xmlns="http://www.w3.org/2000/svg">
<path d="M9.09607 21.25V18.1042C9.09607 17.7873 9.14118 17.4756 9.2275 17.1775C9.35305 16.744 9.56577 16.3392 9.85359 15.9889C6.84922 15.5891 4.5732 14.1301 4.5732 10.1909C4.5732 8.52502 6.00566 6.30143 6.00566 6.30143C5.49236 5.17192 5.50695 3.21688 6.06541 2.75C6.06541 2.75 8.01641 2.92508 9.9131 4.50079C11.7514 4.00473 13.6773 3.94637 15.574 4.50079C17.4707 2.92508 19.4217 2.75 19.4217 2.75C19.9801 3.21688 19.9947 5.17192 19.4814 6.30143C19.4814 6.30143 20.9139 8.52502 20.9139 10.1909C20.9139 14.1301 18.6379 15.5891 15.6335 15.9889C15.9213 16.3392 16.134 16.744 16.2596 17.1775C16.3459 17.4756 16.391 17.7873 16.391 18.1042V21.25" stroke="currentColor" stroke-width="1.5" stroke-linecap="round" stroke-linejoin="round"/>
<path d="M3.08612 16.5704C3.24888 17.1238 3.54919 17.6357 3.96382 18.0664C4.37845 18.4971 4.89629 18.8352 5.47728 19.0544C6.05826 19.2737 6.68682 19.3682 7.31433 19.3308C7.94183 19.2933 8.55147 19.1248 9.09607 18.8384" stroke="currentColor" stroke-width="1.5" stroke-linecap="round" stroke-linejoin="round"/>
</svg>

<svg xmlns="http://www.w3.org/2000/svg" width="24" height="24" fill="none" viewBox="0 0 24 24"><path stroke="currentColor" stroke-linecap="round" stroke-linejoin="round" stroke-width="1.5" d="M9.096 21.25v-3.146a3.33 3.33 0 0 1 .758-2.115c-3.005-.4-5.28-1.859-5.28-5.798 0-1.666 1.432-3.89 1.432-3.89-.514-1.13-.5-3.084.06-3.551 0 0 1.95.175 3.847 1.75 1.838-.495 3.764-.554 5.661 0 1.897-1.575 3.848-1.75 3.848-1.75.558.467.573 2.422.06 3.551 0 0 1.432 2.224 1.432 3.89 0 3.94-2.276 5.398-5.28 5.798a3.33 3.33 0 0 1 .757 2.115v3.146"/><path stroke="currentColor" stroke-linecap="round" stroke-linejoin="round" stroke-width="1.5" d="M3.086 16.57c.163.554.463 1.066.878 1.496.414.431.932.77 1.513.988a4.46 4.46 0 0 0 3.62-.216"/></svg>
